assets/img/logo-da-white.svg

<?xml version="1.0" encoding="UTF-8"?>
<svg width="165px" height="59px" viewBox="0 0 165 59" version="1.1" xmlns="http://www.w3.org/2000/svg" xmlns:xlink="http://www.w3.org/1999/xlink">
    <!-- Generator: Sketch 42 (36781) - http://www.bohemiancoding.com/sketch -->
    <title>Artboard</title>
    <desc>Created with Sketch.</desc>
    <defs></defs>
    <g id="Page-1" stroke="none" stroke-width="1" fill="none" fill-rule="evenodd">
        <g id="Artboard" fill="#FFFFFF">
            <g id="logo/da/white">
                <path d="M23.9583322,11.0622882 C10.7481508,11.0622882 0,21.7388371 0,34.8612235 C0,47.985429 10.7481508,58.6628875 23.9583322,58.6628875 C37.1694292,58.6628875 47.9166644,47.985429 47.9166644,34.8612235 C47.9166644,21.7388371 37.1694292,11.0622882 23.9583322,11.0622882 L23.9583322,11.0622882 L23.9583322,11.0622882 Z M23.9583322,54.1150306 C13.2724417,54.1150306 4.57796694,45.4777407 4.57796694,34.8612235 C4.57796694,24.2456158 13.2724417,15.6101451 23.9583322,15.6101451 C34.6451382,15.6101451 43.3386974,24.2456158 43.3386974,34.8612235 C43.3386974,45.4777407 34.6451382,54.1150306 23.9583322,54.1150306 L23.9583322,54.1150306 L23.9583322,54.1150306 Z M15.9194222,29.2946466 C18.1635416,29.2946466 19.9837413,31.1037841 19.9837413,33.3331436 C19.9837413,35.5643222 18.1635416,37.3716405 15.9194222,37.3716405 C13.6734717,37.3716405 11.8541876,35.5643222 11.8541876,33.3331436 C11.8541876,31.1037841 13.6734717,29.2946466 15.9194222,29.2946466 Z M31.9780147,29.2946466 C34.2239652,29.2946466 36.0450805,31.1037841 36.0450805,33.3331436 C36.0450805,35.5643222 34.2239652,37.3716405 31.9780147,37.3716405 C29.7338953,37.3716405 27.9136956,35.5643222 27.9136956,33.3331436 C27.9136956,31.1037841 29.7338953,29.2946466 31.9780147,29.2946466 Z M9.30059763,6.23519285 C7.75324481,5.91138544 6.11799502,5.40293503 5.72612105,4.09042352 C5.55948305,3.53376584 5.42946879,2.15121733 7.80726482,1.34351794 C11.303916,0.154708141 20.0615667,-0.106338846 26.5018506,0.0346447185 C41.1623319,0.35117556 41.8572673,2.12574933 42.153004,2.88251272 C42.3819023,3.46918627 42.265622,4.11407238 41.8417022,4.60978878 C40.3474538,6.35707542 31.1191881,7.07017938 22.6435401,7.07017938 C17.0629984,7.07017938 11.8093235,6.76092511 9.30059763,6.23519285 Z M37.4203018,3.49192555 C31.0377003,4.63707593 15.0660892,4.72439478 9.76022551,3.58924969 C15.1173624,2.43045575 31.074324,2.40589732 37.4203018,3.49192555 Z M60.5637558,37.7336499 L62.5954575,37.7336499 L67.6596046,50.534048 L65.0089617,50.534048 L61.5791489,40.4196142 L58.1319398,50.534048 L55.4812969,50.534048 L60.5637558,37.7336499 Z M129.933689,43.0882967 C132.47446,43.7377306 134.071255,44.5308769 134.071255,46.8748423 C134.071255,49.6326628 131.839039,50.6777603 129.298267,50.6777603 C127.374605,50.6777603 125.378612,50.0656187 123.890772,49.0196117 L124.997725,46.8748423 C125.432632,47.3068887 127.374605,48.4429434 129.334891,48.4429434 C130.695463,48.4429434 131.404132,47.9745141 131.404132,47.1267936 C131.404132,45.9907389 130.079268,45.6669315 128.064047,45.1257366 C125.614835,44.4590207 124.416323,43.6285821 124.416323,41.6639079 C124.416323,39.0497997 126.503876,37.6436023 129.11698,37.6436023 C130.914289,37.6436023 132.492772,38.3112277 133.618037,39.0679911 L132.511084,41.0872396 C132.184217,40.7270493 130.586507,39.8256641 129.044648,39.8256641 C127.68316,39.8256641 126.993718,40.3477581 126.993718,41.2673347 C126.993718,42.3133418 127.991715,42.5834845 129.933689,43.0882967 Z M115.5781,37.7336499 L115.5781,48.3528958 L122.147483,48.3528958 L122.147483,50.534048 L113.073037,50.534048 L113.073037,37.7336499 L115.5781,37.7336499 Z M102.800079,45.0174976 L102.800079,48.3528958 L109.242194,48.3528958 L109.242194,50.534048 L100.295015,50.534048 L100.295015,37.7336499 L109.079218,37.7336499 L109.079218,39.9148021 L102.800079,39.9148021 L102.800079,42.9982491 L108.225885,42.9982491 L108.225885,45.0174976 L102.800079,45.0174976 Z M91.6545605,45.7751705 L91.6545605,43.9542086 L96.3195088,43.9542086 L96.3195088,50.534048 L94.2502677,50.534048 L94.2502677,49.0914678 C93.2330435,50.1374749 92.1260911,50.6240956 90.8195393,50.6240956 C87.5160784,50.6240956 84.8681823,47.4878934 84.8681823,44.061538 C84.8681823,40.5642361 87.4986821,37.6436023 90.9834305,37.6436023 C93.3246028,37.6436023 95.0486652,38.7432741 95.8827708,40.4387152 L94.0140446,41.8085297 C93.3969347,40.5469542 92.2176504,39.842946 90.8927868,39.842946 C88.7878376,39.842946 87.3897265,41.8267211 87.3897265,44.1343037 C87.3897265,46.5492158 88.9325013,48.424752 91.0374505,48.424752 C92.2176504,48.424752 93.2879791,47.8480837 94.2502677,46.6756462 L94.2502677,45.7751705 L91.6545605,45.7751705 Z M79.149386,46.1353608 L79.149386,37.7527509 L81.6526183,37.7527509 L81.6526183,50.534048 L79.6209166,50.534048 L72.9965984,42.3315333 L72.9965984,50.534048 L70.4924505,50.534048 L70.4924505,37.7336499 L72.4344241,37.7336499 L79.149386,46.1353608 Z M158.12664,30.0059314 L165,30.0059314 L165,31.3993948 L156.549073,31.3993948 L156.549073,19.0328622 L164.841602,19.0328622 L164.841602,20.4263256 L158.12664,20.4263256 L158.12664,24.432078 L163.965379,24.432078 L163.965379,25.7391321 L158.12664,25.7391321 L158.12664,30.0059314 Z M148.166816,29.4310823 L152.26959,19.0328622 L153.934138,19.0328622 L148.850764,31.3993948 L147.481952,31.3993948 L142.380265,19.0328622 L144.046645,19.0328622 L148.166816,29.4310823 Z M137.680524,19.0501441 L139.259007,19.0501441 L139.259007,31.3993948 L137.680524,31.3993948 L137.680524,19.0501441 Z M124.651631,20.4263256 L124.651631,19.0328622 L134.820211,19.0328622 L134.820211,20.4263256 L130.525162,20.4263256 L130.525162,31.3993948 L128.946679,31.3993948 L128.946679,20.4263256 L124.651631,20.4263256 Z M119.12694,19.0328622 C121.317955,19.0328622 122.896438,21.0357384 122.896438,22.986769 C122.896438,25.0242089 121.423248,26.9579577 119.232233,26.9579577 L115.514924,26.9579577 L115.514924,31.3993948 L113.937357,31.3993948 L113.937357,19.0328622 L119.12694,19.0328622 Z M119.144336,25.5644944 L115.514924,25.5644944 L115.514924,20.4263256 L119.039043,20.4263256 C120.248542,20.4263256 121.301474,21.5232687 121.301474,22.986769 C121.301474,24.3975143 120.441732,25.5644944 119.144336,25.5644944 Z M108.517044,25.2861655 L108.517044,19.0328622 L110.094611,19.0328622 L110.094611,25.2861655 C110.094611,28.6297499 108.622337,31.4867136 104.799735,31.4867136 C100.837047,31.4867136 99.4865463,28.4560218 99.4865463,25.2861655 L99.4865463,19.0328622 L101.065029,19.0328622 L101.065029,25.2861655 C101.065029,27.7247264 101.941252,30.0759684 104.782338,30.0759684 C107.675614,30.0759684 108.517044,27.6546894 108.517044,25.2861655 Z M96.3286647,22.986769 C96.3286647,24.7113164 95.2940442,26.261226 93.7164768,26.6614374 L96.7324414,31.3993948 L94.9442875,31.3993948 L92.1032012,26.9579577 L88.8070651,26.9579577 L88.8070651,31.3993948 L87.2294976,31.3993948 L87.2294976,19.0328622 L92.5591668,19.0328622 C94.7510973,19.0328622 96.3286647,21.0357384 96.3286647,22.986769 Z M88.8070651,25.5644944 L88.8070651,20.4263256 L92.4712698,20.4263256 C93.6816842,20.4263256 94.7337011,21.5933057 94.7337011,22.986769 C94.7337011,24.3447591 93.8748745,25.5644944 92.5774786,25.5644944 L88.8070651,25.5644944 Z M79.4249796,24.5366787 C82.0197713,25.1115278 83.6321312,25.8428232 83.6321312,28.0721827 C83.6321312,30.458898 81.669099,31.5212774 79.1090999,31.5212774 C77.1982565,31.5212774 75.4448952,30.9118645 74.0422061,29.7794481 L74.7957394,28.4560218 C75.5501884,29.2391627 77.2504453,30.1105321 79.1438924,30.1105321 C80.9155656,30.1105321 81.9492706,29.465646 81.9492706,28.2295385 C81.9492706,26.8360751 80.669271,26.4176723 78.3555665,25.8601051 C75.83036,25.2506922 74.5155679,24.5712424 74.5155679,22.6038395 C74.5155679,20.234406 76.409015,18.9455434 78.9864104,18.9455434 C80.6518747,18.9455434 82.0197713,19.5031106 83.0717881,20.3562886 L82.335651,21.6278694 C81.756996,20.9838929 80.4422039,20.3390067 78.9516178,20.3390067 C77.0224626,20.3390067 76.1462397,21.1057754 76.1462397,22.3591648 C76.1462397,23.6835007 77.1808602,24.0318666 79.4249796,24.5366787 Z M69.3781734,19.0501441 L70.9557408,19.0501441 L70.9557408,31.3993948 L69.3781734,31.3993948 L69.3781734,19.0501441 Z M66.0609785,25.1988467 C66.0609785,28.943552 63.7115659,31.3993948 60.0473611,31.3993948 L55.7340007,31.3993948 L55.7340007,19.0328622 L60.0473611,19.0328622 C64.0448419,19.0328622 66.0609785,21.7843157 66.0609785,25.1988467 Z M57.3124837,20.4263256 L60.0473611,20.4263256 C62.8701356,20.4263256 64.4660148,22.4119199 64.4660148,25.1988467 C64.4660148,27.9330182 62.9223244,30.0059314 60.0473611,30.0059314 L57.3124837,30.0059314 L57.3124837,20.4263256 L57.3124837,20.4263256 Z"></path>
            </g>
        </g>
    </g>
</svg>

<svg width="165" height="59" viewBox="0 0 165 59" xmlns="http://www.w3.org/2000/svg"><title>Artboard</title><path d="M23.958 11.062C10.748 11.062 0 21.74 0 34.862c0 13.123 10.748 23.8 23.958 23.8 13.211 0 23.959-10.677 23.959-23.8 0-13.123-10.748-23.8-23.959-23.8zm0 43.053c-10.686 0-19.38-8.637-19.38-19.254 0-10.615 8.694-19.25 19.38-19.25 10.687 0 19.38 8.635 19.38 19.25 0 10.617-8.693 19.254-19.38 19.254zm-8.039-24.82c2.245 0 4.065 1.809 4.065 4.038 0 2.231-1.82 4.039-4.065 4.039-2.246 0-4.065-1.808-4.065-4.039 0-2.23 1.82-4.038 4.065-4.038zm16.059 0c2.246 0 4.067 1.809 4.067 4.038 0 2.231-1.821 4.039-4.067 4.039-2.244 0-4.064-1.808-4.064-4.039 0-2.23 1.82-4.038 4.064-4.038zM9.301 6.235c-1.548-.324-3.183-.832-3.575-2.145-.167-.556-.297-1.939 2.081-2.746C11.304.154 20.062-.106 26.502.034c14.66.317 15.355 2.092 15.651 2.849.229.586.113 1.231-.311 1.727-1.495 1.747-10.723 2.46-19.198 2.46-5.581 0-10.835-.31-13.343-.835zm28.12-2.743c-6.383 1.145-22.355 1.232-27.66.097 5.356-1.159 21.313-1.183 27.66-.097zm23.143 34.242h2.031l5.065 12.8h-2.651l-3.43-10.114-3.447 10.114h-2.65l5.082-12.8zm69.37 5.354c2.54.65 4.137 1.443 4.137 3.787 0 2.758-2.232 3.803-4.773 3.803-1.923 0-3.92-.612-5.407-1.658l1.107-2.145c.435.432 2.377 1.568 4.337 1.568 1.36 0 2.07-.468 2.07-1.316 0-1.136-1.326-1.46-3.341-2.001-2.45-.667-3.648-1.497-3.648-3.462 0-2.614 2.088-4.02 4.701-4.02 1.797 0 3.376.667 4.501 1.424l-1.107 2.02c-.327-.361-1.924-1.262-3.466-1.262-1.362 0-2.051.522-2.051 1.441 0 1.046.998 1.316 2.94 1.821zm-14.356-5.354v10.619h6.57v2.181h-9.075v-12.8h2.505zM102.8 45.017v3.336h6.442v2.181h-8.947v-12.8h8.784v2.18H102.8v3.084h5.426v2.02H102.8zm-11.145.758v-1.82h4.665v6.579h-2.07v-1.443c-1.017 1.046-2.124 1.533-3.43 1.533-3.304 0-5.952-3.136-5.952-6.562 0-3.498 2.63-6.418 6.115-6.418 2.342 0 4.066 1.1 4.9 2.795l-1.869 1.37c-.617-1.262-1.796-1.966-3.121-1.966-2.105 0-3.503 1.984-3.503 4.291 0 2.415 1.543 4.29 3.647 4.29 1.18 0 2.251-.576 3.213-1.748v-.9h-2.595zm-12.506.36v-8.382h2.504v12.781H79.62l-6.624-8.202v8.202h-2.505v-12.8h1.942l6.715 8.401zm78.978-16.13H165V31.4h-8.45V19.033h8.292v1.393h-6.715v4.006h5.838v1.307h-5.838v4.267zm-9.96-.574l4.103-10.398h1.664l-5.083 12.366h-1.369l-5.102-12.366h1.667l4.12 10.398zm-10.486-10.38h1.578v12.348h-1.578V19.05zm-13.03 1.375v-1.393h10.17v1.393h-4.296V31.4h-1.578V20.426h-4.295zm-5.524-1.393c2.191 0 3.77 2.003 3.77 3.954 0 2.037-1.474 3.971-3.665 3.971h-3.717v4.441h-1.578V19.033h5.19zm.017 6.531h-3.63v-5.138h3.525c1.21 0 2.262 1.097 2.262 2.56 0 1.412-.86 2.578-2.157 2.578zm-10.627-.278v-6.253h1.578v6.253c0 3.344-1.473 6.2-5.295 6.2-3.963 0-5.313-3.03-5.313-6.2v-6.253h1.578v6.253c0 2.439.876 4.79 3.717 4.79 2.894 0 3.735-2.421 3.735-4.79zm-12.188-2.3c0 1.725-1.035 3.275-2.613 3.675l3.016 4.738h-1.788l-2.84-4.441h-3.297v4.441H87.23V19.033h5.33c2.192 0 3.77 2.003 3.77 3.954zm-7.522 2.578v-5.138h3.664c1.21 0 2.263 1.167 2.263 2.56 0 1.359-.86 2.578-2.157 2.578h-3.77zm-9.382-1.027c2.595.575 4.207 1.306 4.207 3.535 0 2.387-1.963 3.45-4.523 3.45-1.91 0-3.664-.61-5.067-1.743l.754-1.323c.754.783 2.454 1.655 4.348 1.655 1.772 0 2.805-.645 2.805-1.881 0-1.394-1.28-1.812-3.593-2.37-2.526-.61-3.84-1.289-3.84-3.256 0-2.37 1.893-3.658 4.47-3.658 1.666 0 3.034.557 4.086 1.41l-.736 1.272c-.579-.644-1.894-1.289-3.384-1.289-1.93 0-2.806.767-2.806 2.02 0 1.325 1.035 1.673 3.279 2.178zM69.378 19.05h1.578V31.4h-1.578V19.05zm-3.317 6.15c0 3.745-2.35 6.2-6.014 6.2h-4.313V19.033h4.313c3.998 0 6.014 2.751 6.014 6.166zm-8.749-4.773h2.735c2.823 0 4.419 1.986 4.419 4.773 0 2.734-1.544 4.807-4.419 4.807h-2.735v-9.58z" fill="#FFF" fill-rule="evenodd"/></svg>
